!!!OTL: Das Hildebrandlied.
!!!OTL-incipit: HILDEBRAND UND SEIN SOHN HADUBRAND
!!!COM: C. Reinecke
!!!ARE: Europa, Mitteleuropa, Deutschland
!!!SCT: F0824
!!!TXL: @@DE
!!!YEM: Copyright 1995, estate of Helmut Schaffrath.
**kern	**text
*ICvox	*
*M2/4	*
*k[f#]	*
*G:	*
=1	=1
!LO:TX:a:t=In gemächlicher Bewegung.	!
!LO:TX:a:t=Ges. v. H. Langer	!
{8g'	1._Hil-
8g'	-de-
4g'	-brand
=2	=2
8b/'	und
8g'	ſein
4b/	Sohn
=3	=3
4.dd/	Ha-
8dd/	-du-
=4	=4
4dd/	-brand
4r}	.
=5	=5
{8g	rit-
8g	-ten
4g	ſelb-
=6	=6
8a	-an-
8g	-der
4a	in
=7	=7
4.b/	Wuth
8b/	ent-
=8	=8
4b/	-brannt
4r}	.
=9	=9
{(12cc	ge-
12b	-gen
12a\)	die
(12g\	Seeſtadt
12f#\	.
12e\)	Ve-
=10	=10
4d#	-ne-
4e}	-dig,
=11	=11
{12f#\	ge-
12g\	-gen
12a\	die
12g\	Seeſtadt
12a\	.
12b\	Ve-
=12	=12
4dd/	-ne-
8b/}	-dig,
{8e	Ve-
=13	=13
2b/	-ne-
=15	=15
2b/;}	-dig.
==	==
!!!AGN: erzaehlendes Volks - Lied, Ballade, Hildebrand - Lied
!!!ONB: ESAC (Essen Associative Code) Database: FINK
!!!AMT: simple duple
!!!AIN: vox
!!!EED: Helmut Schaffrath
!!!EEV: 1.0
!!Text: J. V. Scheffel
!!!GTL: Romanzen und Balladen.
!!!source: Musikalischer Hausschatz der Deutschen. Eine Sammlung von über 1000 Liedern und Gesängen mit Singstimmen und Klavierbegleitung. Leipzig, Litterarisches Verlags-Haus.
!!!page: 579
!!!ENC: Anna Maria Matuszewska
!!!EEV: 2025/03/19
*-	*-
